assets/icons/qvision/contacts.svg

<svg xmlns="http://www.w3.org/2000/svg" height="24" viewBox="0 0 24 24" width="24"><path d="M0 0h24v24H0zm0 0h24v24H0zm0 0h24v24H0z" fill="none"/><path d="M20 0H4v2h16V0zM4 24h16v-2H4v2zM20 4H4c-1.1 0-2 .9-2 2v12c0 1.1.9 2 2 2h16c1.1 0 2-.9 2-2V6c0-1.1-.9-2-2-2zm-8 2.75c1.24 0 2.25 1.01 2.25 2.25s-1.01 2.25-2.25 2.25S9.75 10.24 9.75 9 10.76 6.75 12 6.75zM17 17H7v-1.5c0-1.67 3.33-2.5 5-2.5s5 .83 5 2.5V17z"/></svg>

<svg width="24" height="24" viewBox="0 0 24 24" fill="none" xmlns="http://www.w3.org/2000/svg">
<g clip-path="url(#clip0_147_1795)">
<path d="M20 0H4V2H20V0ZM4 24H20V22H4V24ZM20 4H4C2.9 4 2 4.9 2 6V18C2 19.1 2.9 20 4 20H20C21.1 20 22 19.1 22 18V6C22 4.9 21.1 4 20 4ZM12 6.75C13.24 6.75 14.25 7.76 14.25 9C14.25 10.24 13.24 11.25 12 11.25C10.76 11.25 9.75 10.24 9.75 9C9.75 7.76 10.76 6.75 12 6.75ZM17 17H7V15.5C7 13.83 10.33 13 12 13C13.67 13 17 13.83 17 15.5V17Z" fill="#323232"/>
</g>
<defs>
<clipPath id="clip0_147_1795">
<rect width="24" height="24" fill="white"/>
</clipPath>
</defs>
</svg>
